X: 13598
T: Flying Wheelchair, The
R: jig
M: 6/8
K: Gmajor
|:GBG GED|~E3 AB/^c/d|efg edB|Age dBA|
~G3 GED|~E3 AB/^c/d|efg edB|~A2G ~E2D:|
GAB d3|deB dBA|GAB ege|efg edB|
AB/^c/d efg|eaf g2b|age dBG|~A2G ~E2D|
GAB d3|deB dBA|GAB {d}e2{d}e-|efg edB|
AB/^c/d efg|eaf g2b|age dBG|~A2G ~E2D||

